!!!OTL: 788a. Leichtfertiger Abschied.
!!!ODT: 1880
!!!ARE: Europa, Mitteleuropa, Deutschland, Hessen, Lahn - Tal
!!!SCT: E0788
!!!TXL: @@DE
!!!YEM: Copyright 1995, estate of Helmut Schaffrath.
**kern	**text
*ICvox	*
*M6/8	*
*k[f#]	*
*G:	*
=1	=1
!LO:TX:a:t=Lustig.	!
!LO:TX:a:t=Aus dem Lahnthal 1880.	!
{4b	Komm'
8dd	ich
4b	einſt
8dd	aus
=2	=2
8gL	frem-
8bJ	.
8dd	-den
4ee	Lan-
8dd}	-den,
=3	=3
{4cc	freun
8a	ſich
4a	al-
8a	-le
=4	=4
8a	mei-
8b	-ne
8cc	Ver-
4ee	-wand-
8dd}	-ten
=5	=5
{4b	freu-
8b	-en
4b	ſich
8b	mit
=6	=6
8bL	fro-
8ccJ	.
8dd	-hem
4.gg}	Muth,
=7	=7
{4aa	mein
8gg	Ro-
4ff#	-ſin-
8ee	-chen
=8	=8
4dd	iſt
8cc	mir
4b}	gut.
{16dd	Fal-
16dd	-le-
=9	=9
4gg	-ri-
16b	-fal-
16b	-le-
4b	-ra,
16b	fal-
16b	-le-
=10	=10
8bL	-rallala-
8cc	.
8ddJ	-la
4ee}	la!
{16dd	fal-
16dd	-le-
=11	=11
4cc	-ri,
16a	fal-
16a	-le-
4a	lra,
16a	fal-
16a	-le-
=12	=12
8a/L	-rallala-
8b	.
8ccJ	.
4ee	-la
8dd}	la!
=13	=13
{4b	freu-
8b	-en
4b	ſich
8b	mit
=14	=14
8bL	fro-
8ccJ	.
8dd	-hem
4.gg}	Muth,
=15	=15
{4aa	mein
8gg	Ro-
4ff#	-fin-
8ee	-chen
=16	=16
4dd	iſt
8cc	mir
4.b;}	gut.
==	==
!!!AGN: Abschieds - Lied, Liebe
!!!ONB: ESAC (Essen Associative Code) Database: ERK2
!!!AMT: compound duple
!!!AIN: vox
!!!EED: Helmut Schaffrath
!!!EEV: 1.0
!!!GTL: Abschieds- und Wanderlieder
!!!URL-scan: https://rosdok.uni-rostock.de/mcrviewer/recordIdentifier/rosdok_ppn745177662/iview2/phys_0594.iview2?x=175.40593030447008&y=988.4809912028722&scale=0.7029437510502773&rotation=0&layout=singlePageLayout
!!!ENC: Anna Maria Matuszewska
!!!EEV: 2024/12/17
*-	*-
